X:1
T:De profundis clamavi
T:Nicolaus Bruhns (1665-1697)
T:Psalm 130
T:De profundis clamavi
C:Nicolaus Bruhns
C:(1665-1697)
Z:Psalm 130
%%score [ 1 2 ] 3 4
L:1/8
Q:1/4=60
M:4/4
K:C
V:1 treble nm="Violin I" snm="V. I"
V:2 treble nm="Violin II" snm="V. II"
V:3 bass nm="Basso solo" snm="B."
V:4 bass nm="Basso Continuo" snm="B.c."
V:1
"^Adagio" z2 A,>A, C2 C>C | E2 EA AB ^G2 | AE F3 =G E2- | EF/C/ ^D>E E2 e2- | %4
 e=d/c/ Bc/d/ cA a/g/f/e/ | d2 e/f/d/e/ f2- f/a/g/>f/ | e2 z e d2 z d | c2 z c B2 z/ e/d/e/ | %8
 cA f2- f/f/e/d/ g>f | e2 z g- g/c/d/e/ f2- | f/g/e/f/ de/f/ eggg | gggg ffee | eedd ddcc | %13
 B2 e4 d2- | d2 c2 Bc/d/ B>A || A2 z2 z4 | z8 | z8 | z8 | z8 | z8 | z8 | z8 | z8 | z8 | z8 | z8 | %27
 z8 | z4 z2 z e | f2 z ^f g2 z ^g | a2 z c' ba a>^g | af/e/ f4 e2- | e2 d3 c/B/ B>A | %33
"^Allegro"[Q:1/4=120][Q:1/4=120] A2 z2 z4 | z8 | z8 | z8 | z8 | z4 z2 z e | cf z f dg z g | %40
 ea z a g2 z g | f2 z f e2 z e | d2 e2 f2 z d | ef d>c"^Adagio"[Q:1/4=60][Q:1/4=60] c2 z2 | z8 | %45
 z4 cccc | cc_BB BBAA | A/c/_B/A/ G>F F2 z f | =BBee AB/c/ dd | Gc/B/ c4 B2 | %50
 c2 z/ G/^F/G/ A2 z/ A/B/F/ | G2 z/ G/A/E/ ^FG/A/ Bc/d/ | AB/c/ B>A Gggg | ^ffff B2 z c | %54
 ^FFBB EF/G/ A2 | DE/^F/ GA/B/ cd/e/ d>c | Bbbb bbaa | aagg gg z d | d3 ^c dd/e/ ff | ffee eedd | %60
 dd z A A3 ^G | Afff feee | ^d=ddd ^c=ccc | B2 c2 B4 |"^Adagio"[Q:1/4=60][Q:1/4=60] A2 z2 z4 | z8 | %66
 z8 |"^Allegro"[Q:1/4=120][Q:1/4=120] z8 | z4 A/B/c/d/ e/f/g/e/ | a>a g2 f>f e>e | %70
 d/f/e/f/ d>c c2 z2 | z8 | z4 C/D/E/F/ G/A/B/G/ | c>c B>B A/B/c/d/ e/f/g/e/ | %74
 f/g/e/f/ de/f/ e2 z c | f2 de/f/ g2 z e | a2 g2 z2 z g | f/g/e/f/ de/f/ e>f e/d/c/B/ | %78
 A/B/c B>A A2 z2 | z e d>c Bc B>A |"^Adagio"[Q:1/4=60][Q:1/4=60] A2 z2 z4 | z8 | z8 | z8 | %84
"^Allegro"[Q:1/4=120][Q:1/4=120][Q:1/4=120] z8 | z8 | z8 | z8 | z8 | z8 | z8 | z8 | %92
 z2"^Adagio"[Q:1/4=60][Q:1/4=60] B>B cd/e/ d>c | B2 e>e ed/c/ d>e | e2 z2 z4 | z8 | %96
 z4[Q:1/4=120] z2"^Allegro"[Q:1/4=120] z G | c>c c2 z2 z B | e>e ee d2 dg | gf f>f feeg | %100
 c/d/e d>c c2 z2 | z8 | z8 | z8 | z8 | z8 | z8 | z8 | z8 | z8 | z8 | %111
"^Adagio"[Q:1/4=60] z4 z2 z ^f[Q:1/4=60] | g/a/g ^f2 z2 z f | g/a/g gg ^f/g/f ff | %114
 e/^f/e ee ^de e>d |[M:3/4]"^Allegro"[Q:1/4=120][Q:1/4=120] e4 z2 | z6 | z6 | z6 | z6 | z6 | z6 | %122
 z6 | z6 | z2 a2 b2 | c'3 b a2 | z2 d'2 c'2 | b2 b2 a2 | ^g4 a2- | a2 a3 ^g | a4 z2 | z6 | %132
 z2 d2 e2 | f3 e d2 | z2 d'2 ^c'2 | d'3 d' d'2 | z2 c'2 b2 | a3 ^g g2 | z2 a2 a2 | a2 a2 a2 | %140
 a2 a3 ^g | a2 f2 e2 | d2 d2 c2 | B2 B2 A2 | ^G4 A2- | A2 A3 ^G | A4 z2 | z2 g2 e2 | a6- | %149
 a2 a3 ^g | a4 z2 | z2 ef ef | g2 G2 z2 | z2 de de | f2 F2 z2 | z6 | z2 f2 f2 | e3 e ^f2 | g4- gg | %159
 a2 d4 | c2 a3 a | ^g2 ga ga | b2 =g3 g | ^f2 fg fg | a2 =f3 f | e2 d2 c2 | B3 B c2 | B2 A3 A | %168
 ^G2 c2 c2 | B4 z2 | z2 c2 c2 | c2 B3 A | A2 ef e2 | z2 ef e2 | z2 ef e2 | z2 ef e2 | z2 cd e2 | %177
 dc B3 A | A2 ef e2 | z2 ef e2 | z2 ef e2 | z2 ef e2 | z2 cd e2 | dc B3 A | %184
[M:4/4]"^Adagio"[Q:1/4=60][Q:1/4=60] A2 z2 z4 | z8 | z8 | z8 | z8 | z8 | z8 | %191
 z B/c/ d/e/^f/^g/ aa z c | Bc B>A A2 z2 | z e/f/ g/a/b/c'/ d'd' z a | ^g2 a2 g2 a2 | %195
 z2 z A ^GA A>G | A2 z2 z e/f/ =g/a/b/c'/ | d'd' z d' g2 z g | cc'/_b/ a/g/f/e/ de dg/f/ | %199
 e2 z2 z c'/_b/ a/g/f/e/ | d2 e2- e/g/f/e/ d>c |[M:3/4]"^Presto"[Q:1/4=160][Q:1/4=160] c4 z2 | %202
 z2 z c cc | f>g f/g/f/g/ f/g/f/e/ | d>d dd dd | g>a g/a/g/a/ g/a/g/f/ | e>e ea g>f | e>e e2 e2 | %208
 d6- | d4 d2 | ce/d/ ce dc | df/e/ df ed | eg/^f/ eg fe | ^fa/g/ fa gf | gb/a/ gb ag | %215
 ac'/b/ ab/a/ g2 | ag ^fg ab | g^f ga g2 | z ^f ga g2 | z ^f ga gb | ag ^f3 e | e4 z2 | z2 z e ee | %223
 a>b a/b/a/b/ a/b/a/g/ | ^f>f ff ff | b>c' b/c'/b/c'/ b/c'/b/a/ | g>g ge ag | ^f>f f2 f2 | g6 | %229
 ^d6 | eg/^f/ eg fe | ^fa/g/ fa gf | gb/a/ ^gb ag | a2 b4 | z e ^f^g a2 | a2 a3 ^g | a^g ab a2 | %237
 z2 z2 e2 | cc/d/ ce dc | Bd/c/ Bd cB | ce/d/ ce dc | Bd/c/ Bd cB | ce/d/ ce de | fe/f/ de cd | %244
 ed/e/ cd Bc | de de cd | cd B3 A | Aa eg f>e | f3 e dc | B3 B ce | dc B3 A || %251
[M:4/4]"^Allegro"[Q:1/4=120][Q:1/4=120] A2 z2 z4 | z8 | z8 | z g/^f/ g/c'/b/c'/ aa/g/ a/d'/c'/d'/ | %255
 bb a>g ^fg/a/ f>e | e2 z2 z4 | z8 | z8 | z4 z a/^g/ aA | Bb/a/ bB cc'/b/ c'e | dc B2 A2 z2 | z8 | %263
 z8 | z4 z e/^d/ eE | ^F^f/e/ fF Gg/f/ gB | AG ^F2 E2 z2 | z4 z d/c/ d/g/=f/g/ | e2 z e ea a>^g | %269
 ac/B/ c/f/e/f/ dd/c/ d/=g/f/g/ | ee/d/ e/a/g/a/ f/e/d/e/ c>B | A2 z c c3 B | c2 z G e2 d2- | %273
 dB e4 ^d2 | e2 z e ee e>^d | e z z2 z2 z a | d2 z b ee e>^d | e2 z G A2 B2 | B2 z2 z a/^g/ aA | %279
 Bb/a/ bB c2 z e | ed z d dc z e | dc c>B cA z e | ed z d dc z e | %283
 dc"^Soli Deo Gloria" c>B A2 z2 |] %284
V:2
 z4 z2 A,>A, | C2 C>C D3 E | C3 D B,3 C | A,3 B, ^G,2 z2 | z2 e2- e/d/c/B/ Ad | B2 c2- cd/A/ B>B | %6
 c2 z c c2 B2- | B2 A4 ^G2 | A2 z e d2 z d- | d/G/A/B/ c>_B A2 z/ A/d/c/ | =Bc c>B ceee | %11
 eeee AA^GG | AAAc BBEA | ^G2 E2 =F2 ^F2 | ^G2 A4 G2 || A2 z2 z4 | z8 | z8 | z8 | z8 | z8 | z8 | %22
 z8 | z8 | z8 | z8 | z8 | z2 z B c2 z ^c | d2 z ^d eB =d=c/B/ | c2 z A d2 z B | %30
 e/d/c/B/ Ae d>c c>B | c2 z c BABc | A^GAB GA A>G | A2 z2 z4 | z8 | z8 | z8 | z8 | z4 z2 z c | %39
 Ad z d Be z e | cf z f e2 z e | e2 z d d2 z c | c2 B2 c2 z c | cd B>c c2 z2 | z4 cccc | %45
 cc_BB BBAA | AAGG GGFF | F/A/G/F/ E>F F2 z2 | z2 z g cd/e/ f2 | Bc/d/ ef/e/ de/f/ g/a/g/f/ | %50
 eeee eedd | ddcc cc z A | G3 ^F GGBB | AAAA G2 z/ G/^F/G/ | A2 z ^F G2 z E | ^FG/A/ DG G2 F^f | %56
 ^fg/f/ ee ee ed/^c/ | dd d^c/B/ cd/e/ ^fg/a/ | e^f/g/ f>e dd dd/A/ | BB BA/^G/ AA AG/^F/ | %60
 ^GA/B/ cd/e/ Bc/d/ c>B | Accc B_BBB | AAAA ^GAAA | ^G2 A4 G2 | A2 z2 z4 | z8 | z8 | z8 | z8 | %69
 A/B/c/d/ e/f/g/e/ a/b/a/b/ c'c | Bc c>B c2 z2 | z8 | C/D/E/F/ G/A/B/G/ c>c B>B | %73
 E2 z2 F/G/A/B/ c/d/e/c/ | dG G2 Gc/B/ AA | d2 Bc/d/ e2 z c | f2 e2 z2 z c | %77
 A/B/c c>B c>d c/B/A/G/ | ^F/G/A A>^G Aa =g>=f | ec B>A ^GA A>G | A2 z2 z4 | z8 | z8 | z8 | z8 | %85
 z8 | z8 | z8 | z8 | z8 | z8 | z8 | z2 ^G>G AB/c/ B>A | ^G2 G>G A4 | ^G2 z2 z4 | z8 | z4 z2 z E | %97
 A>A A2 z2 z G | c>c cc c2 B2 | c2 d2 G2 z G | A/B/c cB c2 z2 | z8 | z8 | z8 | z8 | z8 | z8 | z8 | %108
 z8 | z8 | z8 | z2 z B c/d/c B2 | z2 z B c/d/c B2 | z B c/d/c cc B/c/B | BB A/B/A A/B/G/A/ ^F2 | %115
[M:3/4] E4 z2 | z6 | z6 | z6 | z6 | z6 | z6 | z2 e2 ^f2 | g3 ^f e2 | z2 e^f g2 | a2 ed cB | %126
 A2 a2 g2 | f2 f2 e2 | d4 c2- | c2 B4 | A4 z2 | z6 | z2 AB ^c2 | d2 AG FE | D2 f2 g2 | a3 g f2 | %136
 z2 e2 e2 | e4 e2 | z2 d2 e2 | f2 e2 d2 | f2 e3 d | c2 c2 B2 | A2 A2 G2 | F2 F2 E2 | D3 d cB | %145
 cd B3 A | A2 c2 A2 | e6- | e2 dc BA | c2 B4 | A4 z2 | z2 cd cd | e2 E2 z2 | z2 Bc Bc | d2 D2 z2 | %155
 z2 AB AB | c2 cd cd | G2 G2 c2 | B3 B c2 | c2 c3 B | c2 ef ef | B2 Bc Bc | d2 de de | A2 AB AB | %164
 c2 cd cd | G2 ^G2 A2 | E3 E E2 | E2 E3 D | E2 A2 A2 | A2 ^G2 z2 | z2 A2 A2 | A2 A3 ^G | A2 c2 c2 | %173
 z2 B2 B2 | z2 c2 c2 | z2 ^G2 G2 | z2 AB c2 | BA ^G3 A | A2 c2 c2 | z2 B2 B2 | z2 c2 c2 | %181
 z2 ^G2 G2 | z2 AB c2 | BA ^G3 A |[M:4/4] A2 z2 z4 | z8 | z8 | z8 | z8 | z8 | z4 z E/^F/ G/A/B/c/ | %191
 dd z d cA/B/ c/d/e/^f/ | ^ga a>g a2 z2 | z =G/A/ B/c/d/e/ ff z f | B2 ec B2 e/d/c/B/ | %195
 Aaef Bc B2 | AA/B/ c/d/e/f/ gG z2 | z g gd eg/f/ e/d/c/_B/ | Aa/g/ f/e/d/c/ =Bc c>B | %199
 cg/f/ e/d/c/_B/ Aa/g/ f/e/d/c/ | =B2 c2- c/e/d/c/ B>c |[M:3/4] c4 z2 | z2 z A AA | %203
 d>e d/e/d/e/ d/e/d/c/ | B>B BB BB | e>f e/f/e/f/ e/f/e/d/ | c>c cc d2 | G>G G2 c2 | c6 | B6 | %210
 E2 z2 a2 | g2 G3 G | G2 z2 G2 | Ac/B/ Ac BA | Bg/^f/ eg fe | ^fa/g/ fg/f/ e2 | ^fe e3 ^d | %217
 e^f ef e2 | z ^d e^f e2 | z ^d e^f eg | ^fe e3 ^d | e4 z2 | z2 z ^c cc | ^f>g f/g/f/g/ f/g/f/e/ | %224
 ^d>d dd dd | g>a g/a/g/a/ g/a/g/^f/ | e>e eg ^fe | ^d>d d2 B2 | B6 | A6 | B3 B B2 | B2 B3 B | %232
 B>c d4 | ed/c/ Bd cB | c3 d e2 | f2 B4 | cB cd c2 | z2 z2 B2 | Bc/B/ Ac BA | ^GB/A/ GB AG | %240
 Ac/B/ Ac BA | ^GB/A/ GB AG | Ac/B/ Ac Bc | dc/d/ Bc AB | cB/c/ AB ^GA | Bc Bc AB | AB ^G3 A | A6 | %248
 z A dc BA | ^G3 G Ac | BA ^G3 A ||[M:4/4] A2 z2 z4 | z8 | z c/B/ c/f/e/f/ dd/c/ d/g/f/g/ | %254
 e2 z g g3 ^f | gg ^f>e ^de/f/ d>e | e2 z2 z4 | z8 | z e/^d/ eE ^F^f/e/ fF | %259
 GB/A/ ^G/A/B/G/ AA, z a | a3 ^g aa/g/ ac | BA A>^G A2 z2 | z4 z =G/^F/ G/c/B/c/ | %263
 AA/G/ A/d/c/d/ BB A>G | ^FG/A/ F>E E2 z2 | z4 z b/a/ bg | ^f e2 ^d eG/^F/ G/c/B/c/ | %267
 AA/G/ A/=d/c/d/ B2 z2 | z B/A/ B/e/d/e/ c/B/c/d/ B2 | A2 z2 z2 z d | G2 z e AA A>^G | %271
 Ac/B/ c/=f/e/f/ dd/c/ d/=g/f/g/ | e2 g2 g3 ^f | g2 z e a2 ^f2 | g>a b>b ^fa g>f | %275
 eG/^F/ G/c/B/c/ AA/G/ A/d/c/d/ | BB/A/ B/e/d/e/ c/B/A/B/ G>^F | Ee/^d/ eE ^F^f/e/ fF | %278
 GB/A/ ^G/B/A/G/ AA, z c | f2 e2 e2 z c | cB z B BA z c | BA A>^G A2 z c | cB z B BA z c | %283
 BA A>^G A2 z2 |] %284
V:3
 z8 | z8 | z8 | z8 | z8 | z8 | z8 | z8 | z8 | z8 | z8 | z8 | z8 | z8 | z8 || z2 A,,>A,, C,2 E,>E, | %16
w: |||||||||||||||De pro- fun- dis cla-|
 A,2- A,/C/B,/D/ C/B,/A,- A,/G,/F,/E,/ | F,/E,/F,/G,/ F,3 E,/D,/ E,F,/G,/ | %18
w: ma- * * * * * * * * * * *||
 A,2- A,/G,/F,/E,/ D,D- D/C/B,/A,/ | ^G,/^F,/E, z C D2- D/C/B,/A,/ | %20
w: |* * vi, cla- ma- * * * *|
 ^G,E,A,A, A,3/2B,/4^F,/4 G,>G, | A,2 z E, =F,2 z ^F, | G,2 z ^G, A,2 z B, | %23
w: * vi ad te, Do- * * * mi-|ne, ad te, ad|te, ad te, cla-|
 C3 B,/A,/ B,3 A,/^G,/ | A,3 =G,/^F,/ G,E, C2- | C2 B,4 A,2- | A,2 G,2 ^F,G,/A,/ G,>F, | %27
w: ma- * * * * *|* * * * vi, ad|_ _ _|* te, Do- * * * mi-|
 E,2 z2 z4 | z8 | z8 | z8 | z8 | z8 | z A,,/B,,/ C,B,,/A,,/ E,>E, E,2 | %34
w: ne.||||||Do- * * * * * mi- ne,|
 z E,/^F,/ ^G,F,/E,/ A,>A, A,A, | ^F,D,DC B,>A, =G,/A,/=F,/G,/ | E,C, z C A,G,F,E, | %37
w: Do- * * * * * mi- ne, ex-|au- * * * * * * * * *|* di, ex- au- di vo- cem|
 D,E,/F,/ G,3 A,/B,/ C/C,/D,/E,/ | F,E,/D,/ G,G,, C,2 z2 | z8 | z8 | z8 | z8 | z4 CCCC | %44
w: me- * * * * * * * * *|* * * * * am.|||||Fi- ant au- res|
 CC_B,B, B,B,A,A, | A,A, z2 z4 | z8 | z4 A,A,A,A, | A,A,G,G, G,G,F,F, | F,F, z2 z4 | %50
w: tu- ae in- ten- den- tes, in- ten-|den- tes,||fi- ant au- res|tu- ae in- ten- den- tes, in- ten-|den- tes|
 z2 z C ^F,F,B,B, | E,^F,/G,/ A,2 D,E,/F,/ G,B,, | D,C, D,2 G,,2 z2 | z4 E,E,E,E, | %54
w: in vo- cem de- pre-|ca- * * * * ti- * o- nis|me- * * ae,|fi- ant au- res|
 E,E,D,D, D,D,C,C, | C,C, z2 z4 | z2 z G, ^C,C,^F,F, | B,,^C,/D,/ E,2 A,,B,,/C,/ D,^F,, | %58
w: tu- ae in- ten- den- tes, in- ten-|den- tes,|in vo- cem de- pre-|ca- * * * * ti- * o- nis|
 A,,G,, A,,2 D,,2 z D | ^G,G,CC ^F,G,/A,/ B,2 | E,^F,/^G,/ A,C, E,D, E,2 | A,,2 z2 z4 | z8 | z8 | %64
w: me- * * ae, in|vo- cem de- pre- ca- * * *|* ti- * o- nis me- * *|ae.|||
 z2 A,3 A, A,>A, | B,B, B,>C C>C C2 | ^G,>G, G,2 A,>A, A,2 | %67
w: Si i- ni- qui-|ta- tes ob- ser- va- ve- ris,|Do- mi- ne, Do- mi- ne,|
 A,,/B,,/C,/D,/ E,/F,/=G,/E,/ A,>A, A,C, | D,F, E,2 A,,2 z2 | z8 | z4 C,/D,/E,/F,/ G,/A,/B,/G,/ | %71
w: Do- * * * * * * * * mi- ne, quis|sus- ti- ne- bit,||Do- * * * * * * *|
 C>C CE, F,A, G,2 | C,2 z2 z4 | A,,/B,,/C,/D,/ E,/F,/G,/E,/ A,>A, G,C | B,C C>B, CC, F,2 | %75
w: * mi- ne, quis sus- ti- ne-|bit,|Do- * * * * * * * * mi- ne, quis|sus- ti- ne- * bit, quis, quis,|
 D,E,/F,/ G,2 z E, A,2 | z F, C2 z2 z E, | F,C, G,2 C,2 z C, | D,A,, E,2 A,,2 z2 | z8 | %80
w: Do- mi- ne, quis, quis, quis,|quis, quis, quis|sus- ti- ne- bit, quis|sus- ti- ne- bit.||
 z2 A,3 A, A,>B, | C2 z/ C/B,/C/ ^F,G,/A,/ F,E,/F,/ | G,4 z ^G, G,G, | A,3 A,/B,/ B,E, E,2 | %84
w: Qui- a a- pud|te pro- pi- ti- a- * * * ti- o|est et prop- ter|le- gem _ tu- * am|
"^Allegro" z2 z A, ^F,>E, D,2 | G,2 z G, E,>D, C,2 | C2 z C/G,/ A,>B, CE, | %87
w: sus- ti- nu- i|te, sus- ti- nu- i|te, sus- ti- * nu- i te|
 F,/E,/D, G,G,, C,2 z E, | C,>B,, A,,2 D,2 z D | B,>A, G,2 C2 z C/G,/ | A,>A, A,E, F,2 E,2 | %91
w: Do- * * * mi- ne, sus-|ti- nu- i te, sus-|ti- nu- i te, sus- *|ti- nu- i- te Do- *|
 A,2- A,/G,/F,/E,/ D,2 ^D,>D, | E,2 z2 z4 | z8 | z2 z E, A,>A, A,2 | ^G,2 A,B,/4C/4D/ C>B, A,E, | %96
w: * * * * * * * mi-|ne.||Sus- ti- nu- it|a- ni- mas _ _ me- a _ in|
 =G,E,E,F, E,>D, C,2 | z2 z A,, E,>E, E,2 | z2 z C, G,>G, G,2 | A,2 B,>B, C2 CE, | %100
w: ver- * bo _ e- jus, _|sus- ti- nu- it,|sus- ti- nu- it|a- ni- ma me- a in|
 F,C, G,2 C,2 z C | B,CA,B, ^G,2 E,2 | z2 z C B,CA,B, | ^G,2 E,2 A,B,=G,A, | %104
w: ver- bo e- jus, spe-|ra- * * * * vit,|spe- ra- * * *|* vit a- * * *|
 ^F,G,E,F, ^D,>^C, B,,2 | z2 z B, =C/=D/C B,/C/B, | A,/B,/A, G,/A,/G, ^F,/G,/F, E,/F,/E, | %107
w: * * ni- ma me- a _|in Do- * * * * *||
 ^D,/^C,/B,, B,A,/G,/ ^F,G,/A,/ G,F,/E,/ | E,2 z B, =C/=D/C B,/C/B, | %109
w: * * * * * * * * * * mi- *|no, in Do- * * * * *|
 A,/B,/A, G,/A,/G, ^F,/G,/F, E,/F,/E, | ^D,/^C,/B,, B,A,/G,/ ^F,G,/A,/ G,F,/E,/ | E,2 z2 z4 | z8 | %113
w: |* * * * * * * * * * mi- *|no.||
 z8 | z8 |[M:3/4] z2 E,2 ^F,2 | G,3 ^F, E,2 | z2 A,2 B,/C/D | C3 B, B,2 | z2 A,2 G,2 | %120
w: ||A cus-|to- di- a|ma- tu- * *|ti- * na|us- que,|
 ^F,2 G,2 A,2 | G,^F, F,3 E, | E,4 z2 | z6 | z6 | z6 | z6 | z6 | z6 | z6 | z2 A,2 B,2 | C3 B, A,2 | %132
w: us- que ad|no- * * *|ctem,||||||||a cus-|to- di- a,|
 z6 | z6 | z2 D,2 E,2 | F,3 E, D,2 | z2 A,2 B,/C/D | C3 B, B,2 | z2 D2 C2 | B,2 C2 D2 | CB, B,4 | %141
w: ||a cus-|to- di- a|ma- tu- * *|ti- * na|us- que,|us- que ad|no- * *|
 A,2 A,2 G,2 | F,2 F,2 E,2 | D,3 E, C,D, | B,,4 A,,2- | A,,2 E,4 | A,,4 z2 | z6 | z6 | z6 | %150
w: ctem, us- que,|us- que ad|no- * * *|||ctem.||||
 z2 A,B, A,B, | C2 C,2 z2 | z2 E,F, E,F, | G,2 G,,2 z2 | z2 D,E, D,E, | F,2 F,G, F,G, | %156
w: Spe- * * *|* ret,|spe- * * *|* ret,|spe- * * *||
 A,2 A,B, A,B, | C2 B,2 A,2 | G,3 F, E,2 | F,2 G,2 G,,2 | C,2 CD CD | E2 E,2 z2 | z2 B,C B,C | %163
w: |* * ret|Is- ra- el|in Do- mi-|no, spe- * * *|* ret,|spe- * * *|
 D2 D,2 z2 | z2 A,B, A,B, | C2 B,2 A,2 | ^G,3 G, A,2 | =G,2 F,3 F, | E,2 C,D, C,D, | E,3 F, E,D, | %170
w: * ret,|spe- * * *|* * ret|Is- ra- el|in Do- mi-|no, spe- * * *|* ret _ _|
 C,3 B,, A,,B,, | C,D, E,3 E, | A,,2 z2 z2 | z6 | z6 | z6 | z6 | z6 | z6 | z6 | z6 | z6 | z6 | z6 | %184
w: Is- ra- el _|in _ Do- mi-|no.||||||||||||
[M:4/4] z2 A,3 A, E,>^F, | G,>G, G,2 z B, ^G,^F,/E,/ | A,2- A,/=G,/^F,/E,/ ^D,>E, F,G,/A,/ | %187
w: Qui- a a- pud|Do- mi- num mi- se- ri- *|cor- * * * * * * * * *|
 G,>^F, E,2 z E,/F,/ G,/A,/B,/C/ | DD z2 z B,,/C,/ D,/E,/^F,/^G,/ | A,A,A,,B,, C,2 =G,,A,, | %190
w: * di- a et _ co- * pi- *|o- sa, et _ co- * pi- *|o- sa a- pud e- um re-|
 B,,A,, B,,>B,, E,,2 z2 | z8 | z4 z A,,/B,,/ C,/D,/E,/F,/ | G,G, z2 z F,/G,/ A,/B,/C/D/ | %194
w: demp- * * ti- o,||et _ co- * pi- *|o- sa, et _ co- * pi- *|
 E>D C/B,/A, E,>D, C,/B,,/A,, | F,2 C,D, E,D, E,>E, | A,,2 z2 z4 | z D/C/ B,/A,/G,/F,/ E,C, E,>E, | %198
w: o- sa a- * pud e- um, a- * pud|e- um re- demp- * * ti-|o,|et _ co- * pi- * o- sa a- pud|
 F,2 F,F, F,E,/F,/ G,G,, | C,2 z2 z4 | z8 |[M:3/4] z2 z C, C,C, | F,>G, F,/G,/F,/G,/ F,/G,/F,/E,/ | %203
w: e- um re- demp- * * * ti-|o.||Et ip- se|re- * * * * * * * * *|
 D,>D, D,D, D,D, | G,>A, G,/A,/G,/A,/ G,/A,/G,/F,/ | E,>E, E,E, E,E, | A,3 A, B,2 | C>C C2 E,2 | %208
w: * di- met, et ip- se|re- * * * * * * * * *|* di- met, et ip- se|re- di- met|Is- ra- el ex|
 ^F,A,/G,/ F,A, ^G,F, | ^G,B,/A,/ G,B, A,G, | A,3 A, A,2 | B,2 B,3 B, | C6 | A,6 | E,6 | %215
w: o- * * * * * *||* mni- bus|i- ni- qui-|ta-|||
 A,,3 B,, C,2 | A,,2 B,,4 | E,,4 z2 | z6 | z6 | z6 | z2 z E, E,E, | %222
w: * ti- bus|e- *|jus,||||et ip- se|
 A,>B, A,/B,/A,/B,/ A,/B,/A,/G,/ | ^F,>F, F,F, F,F, | B,>C B,/C/B,/C/ B,/C/B,/A,/ | %225
w: re- * * * * * * * * *|* di- met, et ip- se|re- * * * * * * * * *|
 G,>G, G,G, G,G, | C3 C A,2 | B,>B, B,2 ^D,2 | E,G,/^F,/ E,G, F,E, | ^F,A,/G,/ F,A, G,F, | %230
w: * di- met, et ip- se|re- di- met|Is- ra- el ex|o- * * * * * *||
 G,3 G, G,2 | ^D,2 D,3 D, | E,2 B,,4 | C,2 ^G,,4 | A,,3 B,, C,2 | D,2 E,4 | A,,4 A,2 | %237
w: * mni- bus|in- i- qui-|ta- *||* ti- bus|e- *|jus, ex|
 ^G,B,/A,/ G,B, A,G, | A,>A, A,2 A,,2 | E,3 E, E,2 | z2 z2 A,,2 | E,3 E, E,2 | A,2 A,2 A,2 | %243
w: o- * * * * * *|* mni- bus, ex|o- mni- bus,|ex|o- mni- bus|in- i- qui-|
 D,2 G,4 | C,2 F,4 | D,2 E,2 F,2 | D,2 E,4 | A,,4 z2 | z6 | z6 | z6 || %251
w: ta- *||* ti- bus|e- *|jus.||||
[M:4/4] z A,/^G,/ A,A,, B,,B,/A,/ B,B,, | C,C/B,/ CC, D,F, E,2 | A,,2 z2 z4 | z8 | z8 | %256
w: A- * * * * * * * *||men,|||
 z E,/^D,/ E,E,, ^F,,^F,/E,/ F,F,, | G,,G,/^F,/ G,G,, A,,C, B,,2 | E,,2 z2 z4 | z8 | z8 | %261
w: a- * * * * * * * *||men,|||
 z4 z C,/B,,/ C,/F,/E,/F,/ | D,D,/C,/ D,/G,/F,/G,/ E,2 G,2 | G,3 ^F, G,G, F,>E, | %264
w: a- * * * * *|* * * * * * * * men,|a- * men, a- * *|
 ^D,E,A,,B,, E,, G,/^F,/ G,/C/B,/C/ | A,A,/G,/ A,/=D/C/D/ B,G, z G,, | A,,2 B,,2 E,,2 z2 | z8 | %268
w: * * * * men, a- * * * * *|* * * * * * * * men, a-|* * men,||
 z8 | z A,/^G,/ A,A,, B,,B,/A,/ B,B,, | C,C/B,/ CC, D,F, E,2 | A,,2 z2 z4 | %272
w: |a- * * * * * * * *||men,|
 z G,/^F,/ G,/C/B,/C/ A,A,/G,/ A,/D/C/D/ | B,/A,/G,/A,/ B,/C/B,/C/ A,/G,/^F,/G,/ A,/B,/A,/B,/ | %274
w: a- * * * * * * * * * * * *||
 G,/^F,/E,/F,/ G,/B,/A,/G,/ C/B,/A,/C/ B,B,, | E, E,/^D,/ E,E,, ^F,,^F,/E,/ F,F,, | %276
w: |men, a- * * * * * * * *|
 G,,G,/^F,/ G,G,, A,,C, B,,2 | E,,2 E,4 ^D,2 | E,2 z2 z2 A,2- | A,2 ^G,2 A, A,/G,/ A,A,, | %280
w: |men, a- *|men, a-|* * men, a- * * *|
 B,,B,/A,/ B,B,, C,C/B,/ CC, | D,F, E,2 A,, A,/^G,/ A,A,, | B,,B,/A,/ B,B,, C,C/B,/ CC, | %283
w: |* * * men, a- * * *||
 D,F, E,2 A,,2 z2 |] %284
w: * * * men.|
V:4
"^Adagio" A,,8- | A,,4"^7""^´" B,,4 | A,,2 A,"^6"F,"^7" G,3"^6""^6" E, | %3
"^7" F,2"^´" F,,2"^#" E,,2 z ^F,, |"^6" ^G,,4 A,,2"^6" =F,,2- |"^K2" F,,2"^6" E,,2"^7""^6" D,,4 | %6
 C,,C,"^6"E,^F,"^4" G,G,"^5"^G,E, |"^9" A,B,,"^6"C,A,,"^65" D,B,,"^#"E,E,, | %8
 A,,2 z"^6" A,"^5" B,2 z B, |"^2" C2 z"^6" E,"^9" F,2 z"^6" F, |"^7" G,A,"^65"F,G, C,C,C,C, | %11
"^ï" ^C,C,C,C, D,D,"^#"E,E, |"^7" F,F,"^6"^F,F,"^ï" ^G,G,A,A,, | %13
"^#" E,2"^6" ^C,2"^9!" D,3"^8#" =C, |"^´" B,,2 A,,2"^4" E,2"^#" E,,2 || A,,8- | A,,8- | %17
"^6" A,,3 G,,/F,,/"^7" G,,3"^6" F,,/E,,/ |"^7""^6" F,,8 |"^#" E,,E,"^6"C,A,,"^6" F,E,F,"^6"D, | %20
"^#" E,"^K2"D,"^6"C,A,,"^65" D,B,,"^#"E,E,, | A,,B,,"^6"C,A,,"^!" D,A,,D,"^K"C, | %22
"^6" B,,E,,"^!"E,"^K"D,"^6" C,B,,C,"^6"^G,, | A,,A,"^ï"^F,"^7#"D, ^G,F,G,E, | %24
"^ï" ^D,^C,D,B,, E,2 z"^6" E, |"^7#" =D,=C,"^6"D,"^6"B,,"^7" C,B,,"^6"C,"^´"A,, | %26
"^7#" B,,A,,/B,,/ C,"^6"G,,"^´5" A,,^F,,"^64""^#" B,,2 | E,,E,/^F,/"^6" G,E,"^6" A,E,"^!"A,"^K"G, | %28
"^6" ^F,B,,B,"^K2"A,"^6" G,2"^65" ^G,2 |"^6" A,A,D"^K2"C"^6" B,B,,"^!"E,"^K2"D, | %30
"^6" C,A,,"^6"F,A,,"^65" D,"^7"B,,"^64"E,"^#"E,, | A,,2 z"^6" A,"^7" G,F,"^6"G,"^6"E, | %32
"^7" F,E,"^6"F,"^5"D,"^7#" E,"^7"D,"^4"E,"^#"E,, |"^Allegro" A,,4 z A,,/B,,/"^6" C,B,,/A,,/ | %34
"^#" E,>E, E,E,"^6" ^C,B,,C,A,, |"^#" D,>E,"^6" ^F,D, G,G,,/A,,/"^6" B,,G,, | %36
 C,C,/D,/"^6" E,C, =F,"^6"E,"^6"D,C, | G,,3 A,,/B,,/ C,3 D,/E,/ | %38
"^65" F,E,/D,/"^4" G,"^3"G,, C,C,/D,/"^6" E,C, | F,D,/E,/ F,D, G,E,/F,/ G,E, | %40
 A,F,/G,/ A,F, C2 z C |"^65" A,"^7"F, z _B,"^65" G,"^7"E, z"^3" A, | %42
"^65" F,D,"^6"G,G,,"^6" A,,A, z"^65" F, |"^64" G,F,"^53"G,G,,"^Adagio" C,2 C2- | %44
"^642" C2"^6""^6K2" _B,4"^6" A,2 |"^7" D,2"^ï" E,2"^4" F,2"^6" A,,2 | %46
"^97" _B,,2"^!" G,,2"^ë7" A,,2"^75" B,,2 |"^64" C,2 C,,2 F,,2 D,,2 |"^9" G,,2 E,,2"^9" F,,2 D,,2 | %49
"^9" E,,2 C,,2"^4""^3" G,,4 | C,,2 C2"^7" ^F,2"^7" B,2 |"^7" E,2"^7" A,2"^7#" D,E,/^F,/ G,B,, | %52
"^4" D,C,D,"^#"D,, G,,2 E,,2 |"^K2" E,,2"^ï" ^D,,2 E,,2"^6" E,2- | %54
"^6K2" E,2"^6#""^642" =D,4"^6" C,2- |"^K2" C,2"^6" B,,2"^7" A,,2"^7#" D,2 | %56
"^7" G,,2"^6" G,2"^7" ^C,2"^7" ^F,2 |"^7" B,,2"^7" E,2"^7" A,,B,,/^C,/"^#" D,"^6"^F,, | %58
"^4" A,,G,,"^#" A,,2"^#" D,,2"^!" D2 |"^7" ^G,2"^7" C2"^7" ^F,G,/A,/"^7" B,2 | %60
"^7#" E,^F,/^G,/ A,"^6"C,"^4" E,D,"^64""^#" E,2 | A,,"^6"A,A,A,"^73" ^G,"^6!"=G,G,G, | %62
"^´3" ^F,"^63"=F,F,F,"^´#" E,"^7ï"^D,D,D, |"^#" E,2"^7" ^D,2"^4" E,2"^#" E,,2 |"^Adagio" A,,8- | %65
"^984""^1085" A,,8- |"^9j2""^1085" A,,8 |"^Allegro" A,2"^6" G,2 F,2"^6" C,2 | %68
 D,2"^#" E,2 A,,A,"^6" G,2 | F,2"^6" E,2 D,2 C,2 | G,2"^4""^3" G,,2 C,2"^6" B,,2 | %71
 A,,2"^6" E,,2 F,,2 G,,2 | C,2"^6" B,,2 A,,2"^6" G,,2 | A,,2"^6" G,,2 F,,2"^6" E,,2 | %74
"^6" D,,C,,"^4""^3" G,,2 C,,C, F,2 | D,E,/F,/ G,2 E,2 A,2 | F,2 C2 z2 z E, | %77
 F,C,"^4""^3" G,2 C,2 z C, | D,A,,"^4""^#" E,2 A,,2"^6""^5" B,,2 | %79
 C,2"^6""^5" D,2"^#" E,"^7"D,"^4"E,"^#"E,, |"^Adagio" A,,8- |"^´" A,,8 | %82
 G,,2- G,,/A,,/G,,/F,,/"^#" E,,4 |"^7""^6" F,,4"^4""^#" E,,2 z E, | %84
"^6""^Allegro" ^C,>B,, A,,2"^#" D,2 z D, |"^6" B,,>A,, G,,2 =C,2 z C, | %86
"^6" E,>D, E,C, F,2"^6" E,2 |"^65" F,D,G,G,, C,B,,/A,,/"^6" ^G,,2 | %88
 A,,2 z"^#" A,"^6" ^F,>E,"^#" D,2 | G,2 z G,"^6" E,>D, C,"^6"E, | %90
"^5""^6" F,2"^6" ^C,2 D,D,,"^#" E,,2 |"^7" F,,6"^6""^´" ^G,,2 | %92
"^#" E,,2"^#""^Adagio" E,2"^6" C,2 A,,2 |"^#" E,2 E,,2"^7""^6" =F,,4 |"^#" E,,2 E,2"^6" C,2 A,,2 | %95
"^#" E,"^K"D,"^6"C,"^´"B,, A,,3 A,, |"^6""^5" B,,4"^Allegro" C,4 | A,,4 E,4 | C,4 G,4 | %99
"^6" A,2"^5" B,2 C3"^6" E, | F,C,"^4""^3" G,2 C,2 A,,2 | %101
"^65" D,"^6#"E,"^63"F,"^6"D,"^#" E,3"^K2" D, |"^6" C,B,,C,A,,"^65" D,"^6#"E,"^63"F,"^6"D, | %103
"^#" E,E,,E,D,"^6" C,"^6#"D,"^6"B,,"^6"C, |"^´" A,,"^6"B,,"^6"C,"^´"A,,"^#" B,,^F,B,A, | %105
 G,^F,G,"^6"^D,"^6" E,2"^6#" =D,2 |"^6" C,2"^6" B,,2"^´" A,,2"^6" C,2 | %107
"^#" B,,A,,"^6"G,,A,,"^4" B,,A,,"^4""^#" B,,2 | E,,E,"^6" ^D,2"^6" E,2"^6#" =D,2 | %109
"^6" C,2"^6" B,,2"^´" A,,2"^6" C,2 |"^#" B,,A,,"^6"G,,A,,"^4" B,,A,,"^4""^#" B,,2 | %111
 E,,E,"^6""^Adagio" ^D,2"^6" E,2"^6" D,2 |"^6" E,2"^6" ^D,2"^6" E,2"^6" D,2 | %113
 E,2"^7" A,,2"^7#" =D,2"^7" G,,2 |"^7" C,2"^7" ^F,,2"^7#" B,,E,,"^4""^#" B,,2 | %115
[M:3/4]"^Allegro" E,,2 E,2"^6" ^D,2 | E,4"^#" E,=D, |"^6" C,4"^´" B,,2 | A,,4"^#" E,2 | %119
"^6" C,4"^64" B,,2 |"^´5" A,,2"^64" B,,2"^6" C,2 |"^7" A,,2"^#" B,,4 | E,,2 E,2"^6" ^D,2 | %123
 E,4"^#" E,=D, |"^6" C,2 C2"^´" B,2 | A,4"^#" A,G, |"^6" F,2 F,2"^6" E,2 | D,2 D2"^6" C2 | %128
"^´" B,4 A,2 | D,2"^4""^#" E,4 | A,,2 A,2"^6" ^G,2 | A,4"^#" A,=G, |"^6" F,2 F,2"^´" E,2 | %133
 D,4 D,2 | z2 D,2"^´" E,2 | F,3 E, D,2 | z2 A,2"^6" ^G,2 | A,4"^#" E,2 | z2"^6" F,2"^6" E,2 | %139
"^6" D,2"^6" E,2"^6" F,2 |"^7" D,2"^#" E,2 E,,2 | A,,2"^6" A,2"^6" G,2 |"^6" F,2"^6" F,2"^6" E,2 | %143
"^6" D,4"^6" C,2 |"^´" B,,4 A,,2- | A,,2"^4""^#" E,4 | A,,2 A,4 |"^6" G,6 |"^7""^6" F,6 | %149
"^64""^5""^#" E,6 | A,,2 A,B, A,B, | C2 C,2 A,,2 | E,,2"^6" E,F, E,F, | G,2 G,,2 G,,2 | %154
 D,,2 D,3 E, | F,2 F,G, F,G, | A,2"^6" A,B, A,B, | C2 B,2"^´" A,2 | G,3 F,"^6" E,2 | %159
 F,2"^4" G,2"^3" G,,2 | C,2"^6" CD CD |"^#" E2"^#" E,4 | B,,2"^6" B,C B,C |"^#" D2"^#" D,4 | %164
 A,,2"^6" A,B, A,B, | C2"^´" B,2 A,2 |"^6" ^G,4 A,2 |"^6" =G,2"^7""^6" F,4 | %168
"^#" E,2"^6" C,D, C,D, |"^#" E,3 F, E,D, |"^6" C,3 B,, A,,B,, |"^6" C,D,"^4" E,2"^#" E,,2 | %172
 A,,2 A,2 A,2 | z2"^6" ^G,2 G,2 | z2 A,2 A,2 | z2"^#" E,2 E,2 | z2 F,2 C,2 | D,2"^4" E,2"^#" E,,2 | %178
 A,,2 A,2 A,2 | z2"^6" ^G,2 G,2 | z2 A,2 A,2 | z2"^#" E,2 E,2 | z2 F,2 C,2 | D,2"^4" E,2"^#" E,,2 | %184
[M:4/4]"^Adagio" A,,8 |"^6""^#" E,,8 |"^7""^´" ^F,,8 | E,,4 E,2 z E, | %188
"^6" B,,B,,B,,B,, B,,B,,B,,B,, | A,,2 A,,B,, C,2"^6" G,,A,, |"^64" B,,A,,"^5#" B,,2 E,,2 E,2 | %191
"^5""^´" B,,4 A,,3 A,, |"^#" E,"^7"D,"^4"E,"^#"E,, A,,4 |"^6" G,,4"^5""^6" F,,4 | %194
"^#" E,,E"^6"CA,"^#" E,>D,"^6" C,A,, | F,2"^6" C,D,"^#" E,"^7"D,"^4""^#" E,2 | A,,2 A,2 E,4 | %197
"^6" B,,4 C,2"^6" E,2 |"^5""^6" F,4-"^64" F,"^6"E,/F,/"^4" G,"^3"G,, | C,3"^6" E,, F,,2"^6" F,2- | %200
"^42" F,2"^6" E,F,"^64" G,2 G,,2 |[M:3/4]"^Presto" C,4 C,2 | F,4 F,2 | D,4 D,2 | G,4 G,2 | %205
 E,4 E,2 | A,4"^6""^5" B,2 | C4"^6" E,2 |"^6" ^F,6 |"^5" ^G,6 | A,6 |"^6" B,6 | C6 |"^´" A,6 | %214
 E,6 |"^6" A,,3 B,, C,2 |"^7" A,,2"^4""^#" B,,4 | E,,4 E,2 |"^5" C,4 C,2 |"^6" G,,4 G,,2 | %220
"^7" A,,2"^4""^#" B,,4 | E,,4 E,2 |"^#" A,4 A,2 | ^F,4 F,2 |"^#" B,4 B,2 | G,4 G,2 | C4"^´" A,2 | %227
"^#" B,4"^6" ^D,2 | E,6 |"^´" ^F,6 | G,6 |"^6" ^D,6 | E,2"^´" B,,4 |"^6" C,2"^6" ^G,,4 | %234
 A,,3"^6" B,,"^6" C,2 | D,2"^4""^#" E,4 | A,,4 A,2 |"^6" ^G,6 | A,4 A,,2 |"^#" E,6 | A,,6 | %241
"^#" E,6 | A,6 |"^7" D,2"^7" G,4 |"^7" C,2"^7" F,4 |"^6" D,2"^7#" E,2 F,2 |"^7" D,2"^4""^#" E,4 | %247
 A,,2"^6" ^C,4 | D,6- |"^6K2" D,4"^6" C,2 | D,2"^4" E,2"^#" E,,2 || %251
[M:4/4]"^Allegro" A,,2 z A,,"^6" B,,2 z B,, | C,2 z"^6" C, D,F,"^4""^#" E,2 | %253
 A,,2 A,2"^65" F,2 G,2 | C,2 E,2"^65" C,2"^4""^#" D,2 | %255
 G,,2"^6""^5" A,,2"^#" B,,"^75"A,,"^4""^#" B,,2 | E,,2 z E,,"^7" ^F,,2 z"^´" F,, | %257
"^6" G,,2 z G,, A,,"^6"C,"^4""^#" B,,2 | E,,2"^42" E,4"^5" ^D,2 |"^!" E,2"^´" B,,2"^6" C,2 F,2 | %260
"^65" D,2"^#" E,2 A,,2 z A, | ^G,A,"^65"D,"^#"E, A,,2"^6" A,,2 |"^6""^5" B,,4 C,2"^6" E,2 | %263
"^65" C,2"^#" D,2 G,,2"^´" A,,2 |"^#" B,,"^75"A,,"^4""^#" B,,2 E,,E, C,2 | %265
"^#" D,2 D,,2 G,,3"^6" G,, |"^´" A,,2"^#" B,,2 E,,2 E,2 |"^6""^5" ^F,4 G,2 G,,2 | %268
"^6" ^G,,4 A,,"^6"C,"^65"D,"^#"E, | A,,3 A,,"^6" B,,3 B,, | C,3 C, D,F,"^64""^5#" E,2 | %271
 A,,2 A,2"^65" F,2"^4""^3" G,2 | C,2 E,2"^65" C,2"^#" D,2 |"^7" G,,2"^7" C,2"^7" ^F,,2"^7#" B,,2 | %274
 E,,2"^6" G,,2"^65" A,,2"^4""^#" B,,2 | E,,3 E,,"^6" ^F,,3 F,, | G,,3 G,, A,,C,"^4""^#" B,,2 | %277
 E,,2"^42" E,4"^5" ^D,2 | E,2"^6" B,,2 C,2 F,2 |"^65" D,2"^#" E,2 A,,A,/^G,/ A,A,, | %280
"^119" B,,"^108"B,/A,/ B,B,,"^97" C,"^86"C/B,/ CC, | D,"^6"F,"^64""^5#" E,2 A,,A,/^G,/ A,A,, | %282
"^119" B,,"^108"B,/A,/ B,B,,"^97" C,"^86"C/B,/ CC, | D,"^6"F,"^64""^5#" E,2 A,,2 z2 |] %284

